X:1
T:Scherzino
T:Scherzino
T:Op. 55 No. 6
T:Joachim Andersen
T:Public Domain
T:Public Domain
T:Public Domain
T:Public Domain
C:Joachim Andersen
Z:Public Domain
%%score { 1 | ( 2 3 ) }
L:1/8
Q:1/4=240
M:3/4
K:D
V:1 treble nm="Piano" snm="Pno."
V:2 bass 
V:3 bass 
V:1
 z2!pp! fg a2- | a z .e2 .a2 | .d2 .f2 .c2 | .f2 .B2 .c2 | .F2 .G2 .^G2 | A2 GA B2 | AB c2 Bc | %7
 d2 cd .e2 | z2 de .f2 | .c2 .e2 .c2 | .B2 .d2 .c2 | .B2 .B2 .A2 | .B2 .G2 .A2 | .B2 .G2 .A2 | %14
 .B2 .d2 .B2 | d2 ef g2 | .f2 de .f2 | .e2 .B2 .e2 | .e2 .A2 .e2 | .e2 .d2 .e2 | ab c'b a^g | %21
 fe de f^g | ab c'b a^g | fe de f^g | .a2 f^g .a2 | ab .c'2 c2 | e2 .^d2 .=d2 | .c2 z2 f2 | %28
 g2 AB .c2 | .d2 .e2 .f3/2 z/4 f/4 | .g2 AB .c2 | .d2 .e2 .f2 | .a2 .g2 .f2 | .g2 z2 z2 | %34
 .g2 z2 z2 | .c2 z2 z2 | de fe dc | BA GA Bc | de fe dc | BA GA Bc | .d2 Bc .d2 | de .f2 .F2 | %42
 .A2 .^G2 .=G2 | .F2 z2 z2 | .[DE^G]2 z2 z2 | .[DFA]2 z2 z2 | .[G,A,C]2 z2 z2 | z6 | z6 | %49
 .[B,DG]2 .[CEA]2 .[DFB]2 | .[EGc]2 .[FAd]2 .[GAe]2 | .[FAd]2 de .f2 | .c2 .e2 .c2 | %53
 .B2 .[Bd]2 .[Ac]2 | .[GB]2 .[FA]2 .[EA]2 | .[FA]2 .[=F^G]2 .[^FA]2 | .[=F^G]2 .[^FA]2 .[=FG]2 | %57
 .[FA]2 .D2 .[CD]2 | %58
"^rit."[Q:1/4=240]"^rit." .[=CD]2[Q:1/4=204]"^.6" .[B,D]2[Q:1/4=190]"^.6" .[A,D]2 | %59
[Q:1/4=240]"^A tempo" z6 | z6 | z6 | z6 | z2 .[G,DG]2 .[G,DG]2 | .[A,GA]2 .[A,GA]2 .[A,GA]2 | %65
 .[=CGA]2 .[CGA]2 .[CGA]2 | .[=CFA]2 .[CFA]2 .[CFA]2 | z2 .[B,FA]2 .[B,FA]2 | %68
 .[B,FA]2 .[B,FA]2 .[B,FA]2 | z2 .[B,FA]2 .[B,FA]2 | .[B,EG]2 .[B,EG]2 .[B,EG]2 | %71
 z2 .[DEB]2 .[DEB]2 | .[CGA]2 .[CGA]2 .[CGA]2 | z2 .[CGA]2 .[CGA]2 | .[=CF_B]2 .[CFB]2 .[CFB]2 | %75
 .[B,GB]2 z2 z2 | .[B,G]2 .F2 .E2 | .[=CE]2 z2 z2 | .[=CD]2 .B,2 .A,2 | .[DG]2 z2 z2 | %80
 .[EG]2 .^G2 .A2 | .[GA]2 .B2 .=c2 | .[Fd]2 z2 z2 | .[Gd]2 .[Ge]2 .[Gd]2 | .[Ge]2 .[Gd]2 .[Ge]2 | %85
 .[Gd]2 .=c2 .^c2 | .d2 z2 z2 | .[GB]2 z2 z2 | .[G=c]2 z2 z2 | .[=CE]2 .[B,D]2 .[A,C]2 | .[G,B,]6 | %91
 z2 de .f2 | .c2 .e2 .c2 | .B2 .d2 .c2 | .B2 .B2 .A2 | .B2 .G2 .A2 | .B2 .G2 .A2 | .B2 .d2 .B2 | %98
 .d2 ef g2 | .f2 de .f2 | .e2 .B2 .e2 | .e2 .A2 .e2 | .e2 .d2 .e2 | ab c'b a^g | fe de f^g | %105
 ab c'b a^g | fe de f^g | .a2 f^g .a2 | ab c'2 c2 | e2 .^d2 .=d2 | .c2 z2 f2 | .g2 AB .c2 | %112
 .d2 .e2 .f3/2 z/4 f/4 | .g2 AB .c2 | .d2 .e2 .f2 | .a2 .g2 .f2 | .g2 z2 z2 | .g2 z2 z2 | %118
 .c2 z2 z2 | de fe dc | BA GA Bc | de fe dc | BA GA Bc | .d2 Bc .d2 | de .f2 F2 | A2 .^G2 .=G2 | %126
 .F2 z2 z2 | .[DE^G]2 z2 z2 | .[DFA]2 z2 z2 | .[G,A,C]2 z2 z2 | z6 | z6 | %132
 .[B,DG]2 .[CEA]2 .[DFB]2 | .[EGc]2 .[FAd]2 .[GAe]2 | .[FAd]2 de .f2 | .c2 .e2 .c2 | %136
 .B2 .[Bd]2 .[Ad]2 | .[GA]2 .[FA]2 .[EA]2 | .[FA]2 .[EA]2 .[FA]2 | .[EA]2 .[FA]2 .[EA]2 | %140
 .[FA]2 .G2 .[DA]2 | .[GB]2 .[DA]2 .[GB]2 | .[DA]2 z2 de | .f2 z2 FA | .d2 .d2 .A2 | .F2 .F2 .E2 | %146
 .D2 z2 z2 |[K:bass] .A,2 z2 z2 | .F,2 z2 z2 | z6 |] %150
V:2
 z2!pp! FG A2- | A z .E2 .A2 | .D2 .F2 .C2 | .F2 .B,2 .C2 | .F,2 .G,2 .^G,2 | A,6- | A,6- | A,6 | %8
[K:treble] .D2 z2 .A2 | .D2 z2 .A2 | .D2 .B2 .A2 | .G2 .G2 .F2 | .G2 .E2 .F2 | .G2 .E2 .F2 | %14
 .G2 .B2 .G2 | B2 cd e2 | .D2 z2 .A2 | .D2 z2 .^G2 | .C2 z2 .A2 | .^G,2 z2 .B2 | %20
[K:bass] .E2 .E2 .E2 | .A2 .A2 .A2 | .E2 .E2 .E2 |[K:treble] .A2 .A2 .A2 | .F2 .F2 .F2 | %25
 .A2 .A2 .A2 | .E2 .F2 .^G2 | .A2 .A,2 z2 | .c2 z2 .A2 | .A2 .A2 .A2 | .c2 z2 .A2 | .A2 .A2 .A2 | %32
 .d2 .d2 .d2 | .d2 z2 z2 | .B2 z2 z2 | .G2 z2 z2 |[K:bass] .A,2 .A,2 .A,2 | .D2 .D2 .D2 | %38
 .A,2 .A,2 .A,2 |[K:treble] .D2 .D2 .D2 | .B,2 .B,2 .B,2 | .D2 .D2[K:bass] .D2 | .A,2 .B,2 .C2 | %43
 .D2 z2 z2 | .E,2 z2 z2 | .A,,2 z2 z2 | .A,,2 z2 z2 | .[F,A,D]2 .[F,A,D]2 .[F,A,D]2 | %48
 .[A,CE]2 .[A,CE]2 .[A,CE]2 | .A,,2 .A,,2 .A,,2 | .A,,2 .A,,2 .A,,2 | .A,,2 .A,2 .A,2 | %52
 .A,2 .A,2 .A,2 | .A,2 .A,2 .A,2 | .A,2 .A,2 .A,2 | .A,2 .^A,2 .=A,2 | .^A,2 .=A,2 .^A,2 | %57
 .A,2 .D,2 .D,2 | .D,2 .D,2 .D,2 | z2 .D2 .D2 | .D2 .D2 .D2 | z2 .D2 .D2 | .D2 .D2 .D2 | B,,4 z2 | %64
 C,4 z2 | D,6- | D,2 z2 z2 | ^D,6- | D,2 z2 z2 | E,6- | E,2 z2 z2 | G,,2 z2 z2 | A,,2 z2 z2 | %73
 D,,6- | D,,2 z2 z2 | .G,,2 .D,2 .D,2 | .D,2 .D,2 .D,2 | .A,,2 .D,2 .D,2 | .D,2 .D,2 .D,2 | %79
 .B,,2 .G,2 .G,2 | .C,2 .A,2 .A,2 | .D,2[K:treble] .=C2 .C2 | .=C2 .D2 .D2 | %83
[K:bass] .B,2 .=C2 .B,2 | .=C2 .B,2 .C2 | .B,2 .A,2 ._B,2 | .B,2 z2 z2 | .E2 z2 z2 | .A,2 z2 z2 | %89
 .D,2 z2 z2 | .D,6 |[K:treble] .D2 z2 .A2 | .D2 z2 .A2 | .D2 .B2 .A2 |[K:treble] .G2 .G2 .F2 | %95
 .G2 .E2 .F2 | .G2 .E2 .F2 | .G2 .B2 .G2 | B2 cd e2 | .D2 z2 .A2 | .D2 z2 .^G2 | .C2 z2 .A2 | %102
 .^G,2 z2 .B2 |[K:bass] .E2 .E2 .E2 | .A2 .A2 .A2 | .E2 .E2 .E2 |[K:treble] .A2 .A2 .A2 | %107
 .F2 .F2 .F2 | .A2 .A2 .A2 | .E2 .F2 .^G2 | .A2 .A,2 z2 | .c2 z2 .A2 | .A2 .A2 .A2 | .c2 z2 .A2 | %114
 .A2 .A2 .A2 | .d2 .d2 .d2 | .d2 z2 z2 | .B2 z2 z2 | .G2 z2 z2 |[K:bass] A,2 A,2 A,2 | %120
 .D2 .D2 .D2 | .A,2 .A,2 .A,2 |[K:treble] .D2 .D2 .D2 | .B,2 .B,2 .B,2 | .D2 .D2[K:bass] .D2 | %125
 .A,2 .B,2 .C2 | .D2 z2 z2 | .E,2 z2 z2 | .A,,2 z2 z2 | .A,,2 z2 z2 | %130
 .[F,A,D]2 .[F,A,D]2 .[F,A,D]2 | .[A,CE]2 .[A,CE]2 .[A,CE]2 | .A,,2 .A,,2 .A,,2 | %133
 .A,,2 .A,,2 .A,,2 | .A,,2 .A,2 .A,2 | .A,2 .A,2 .A,2 | .A,2 .A,2 .A,2 | .A,2 .A,2 .A,2 | %138
 .A,2[K:treble] .D2 .D2 | .D2 .D2 .D2 | .D2 z2 z2 | z6 | z6 | z6 | z6 | z6 | z6 | z6 | %148
 z2[K:bass] F,,G,, .A,,2 | .D,,2 z2 z2 |] %150
V:3
 x6 | x6 | x6 | x6 | x6 | x6 | x6 | x6 |[K:treble] x6 | x6 | x6 | x6 | x6 | x6 | x6 | x6 | x6 | %17
 x6 | x6 | x6 |[K:bass] x6 | x6 | x6 |[K:treble] x6 | x6 | x6 | x6 | x6 | x6 | x6 | x6 | x6 | x6 | %33
 x6 | x6 | x6 |[K:bass] x6 | x6 | x6 |[K:treble] x6 | x6 | x4[K:bass] x2 | x6 | x6 | x6 | x6 | x6 | %47
 x6 | x6 | x6 | x6 | x6 | x6 | x6 | x6 | x6 | x6 | x6 | x6 | G,,6- | G,,2 z2 z2 | A,,6- | %62
 A,,2 z2 z2 | x6 | x6 | x6 | x6 | x6 | x6 | x6 | x6 | x6 | x6 | x6 | x6 | x6 | x6 | x6 | x6 | x6 | %80
 x6 | x2[K:treble] x4 | x6 |[K:bass] x6 | x6 | x6 | x6 | x6 | x6 | x6 | x6 |[K:treble] x6 | x6 | %93
 x6 |[K:treble] x6 | x6 | x6 | x6 | x6 | x6 | x6 | x6 | x6 |[K:bass] x6 | x6 | x6 |[K:treble] x6 | %107
 x6 | x6 | x6 | x6 | x6 | x6 | x6 | x6 | x6 | x6 | x6 | x6 |[K:bass] x6 | x6 | x6 |[K:treble] x6 | %123
 x6 | x4[K:bass] x2 | x6 | x6 | x6 | x6 | x6 | x6 | x6 | x6 | x6 | x6 | x6 | x6 | x6 | %138
 x2[K:treble] x4 | x6 | x6 | x6 | x6 | x6 | x6 | x6 | x6 | x6 | x2[K:bass] x4 | x6 |] %150

